;FLAVOR:Marlin
;TIME:609
;Filament used: 0.381751m
;Layer height: 0.32
;MINX:99.79
;MINY:93.362
;MINZ:0.2
;MAXX:135.632
;MAXY:129.212
;MAXZ:11.72
;Generated with Cura_SteamEngine 4.9.1
M140 S60
M105
M190 S60
M104 S200
M105
M109 S200
M82 ;absolute extrusion mode
; Ender 3 Custom Start G-code
G92 E0 ; Reset Extruder
G28 ; Home all axes
G29 ; Auto Bed Levelling BLTouch
G1 Z2.0 F3000 ; Move Z Axis up little to prevent scratching of Heat Bed
G1 X0.1 Y20 Z0.3 F5000.0 ; Move to start position
G1 X0.1 Y200.0 Z0.3 F1500.0 E15 ; Draw the first line
G1 X0.4 Y200.0 Z0.3 F5000.0 ; Move to side a little
G1 X0.4 Y20 Z0.3 F1500.0 E30 ; Draw the second line
G92 E0 ; Reset Extruder
G1 Z2.0 F3000 ; Move Z Axis up little to prevent scratching of Heat Bed
G1 X5 Y20 Z0.3 F5000.0 ; Move over to prevent blob squish
G92 E0
G92 E0
G1 F1500 E-6.5
;LAYER_COUNT:37
;LAYER:0
M107
G0 F6000 X104.835 Y98.57 Z0.2
;TYPE:SKIRT
G1 F1500 E0
G1 F1200 X105.425 Y97.982 E0.02632
G1 X105.505 Y97.908 E0.02976
G1 X105.984 Y97.489 E0.04987
G1 X106.193 Y97.317 E0.05842
G1 X106.844 Y96.821 E0.08428
G1 X107.095 Y96.644 E0.09399
G1 X107.406 Y96.433 E0.10586
G1 X107.783 Y96.186 E0.1201
G1 X108.569 Y95.717 E0.14902
G1 X108.949 Y95.511 E0.16268
G1 X109.186 Y95.386 E0.17115
G1 X109.505 Y95.223 E0.18247
G1 X110.202 Y94.897 E0.20678
G1 X110.444 Y94.794 E0.21509
G1 X110.803 Y94.648 E0.22734
G1 X111.271 Y94.468 E0.24318
G1 X111.939 Y94.236 E0.26552
G1 X112.163 Y94.166 E0.27294
G1 X112.629 Y94.031 E0.28827
G1 X113.154 Y93.892 E0.30543
G1 X114.028 Y93.699 E0.33371
G1 X114.424 Y93.628 E0.34642
G1 X114.805 Y93.566 E0.35862
G1 X115.168 Y93.514 E0.37021
G1 X115.727 Y93.449 E0.38799
G1 X115.935 Y93.43 E0.39459
G1 X116.487 Y93.393 E0.41207
G1 X117.05 Y93.37 E0.42987
G1 X117.632 Y93.362 E0.44826
G1 X118.02 Y93.371 E0.46053
G1 X118.271 Y93.381 E0.46846
G1 X118.601 Y93.399 E0.47891
G1 X118.901 Y93.42 E0.48841
G1 X119.195 Y93.444 E0.49773
G1 X119.463 Y93.47 E0.50624
G1 X120.363 Y93.595 E0.53495
G1 X120.705 Y93.657 E0.54593
G1 X121.62 Y93.864 E0.57557
G1 X122.514 Y94.148 E0.60521
G1 X123.512 Y94.569 E0.63943
G1 X124.462 Y95.082 E0.67355
G1 X125.266 Y95.569 E0.70325
G1 X125.797 Y95.9 E0.72302
G1 X126.74 Y96.473 E0.75789
G1 X127.29 Y96.83 E0.7786
G1 X127.602 Y97.046 E0.7906
G1 X127.846 Y97.22 E0.80006
G1 X128.146 Y97.44 E0.81182
G1 X128.817 Y97.973 E0.8389
G1 X129.061 Y98.183 E0.84907
G1 X129.337 Y98.428 E0.86073
G1 X129.653 Y98.719 E0.8743
G1 X130.296 Y99.363 E0.90306
G1 X130.538 Y99.626 E0.91435
G1 X130.749 Y99.862 E0.92435
G1 X130.973 Y100.12 E0.93515
G1 X131.256 Y100.459 E0.9491
G1 X131.61 Y100.92 E0.96747
G1 X131.787 Y101.163 E0.97697
G1 X131.953 Y101.396 E0.98601
G1 X132.186 Y101.734 E0.99898
G1 X132.525 Y102.258 E1.0187
G1 X132.976 Y102.999 E1.04611
G1 X133.621 Y104.042 E1.08485
G1 X133.83 Y104.374 E1.09725
G1 X134.295 Y105.188 E1.12687
G1 X134.69 Y106.039 E1.15652
G1 X135.01 Y106.92 E1.18613
G1 X135.29 Y107.991 E1.22111
G1 X135.315 Y108.111 E1.22498
G1 X135.445 Y108.864 E1.24913
G1 X135.496 Y109.237 E1.26102
G1 X135.556 Y109.774 E1.2781
G1 X135.582 Y110.073 E1.28758
G1 X135.621 Y110.844 E1.31197
G1 X135.631 Y111.449 E1.33109
G1 X135.632 Y111.771 E1.34127
G1 X135.629 Y112.006 E1.34869
G1 X135.596 Y112.729 E1.37156
G1 X135.575 Y112.996 E1.38002
G1 X135.528 Y113.465 E1.39492
G1 X135.462 Y114.006 E1.41214
G1 X135.373 Y114.603 E1.43121
G1 X135.309 Y114.943 E1.44214
G1 X135.265 Y115.159 E1.4491
G1 X135.188 Y115.504 E1.46027
G1 X135.084 Y115.942 E1.4745
G1 X134.935 Y116.505 E1.4929
G1 X134.811 Y116.907 E1.50619
G1 X134.656 Y117.373 E1.52171
G1 X134.505 Y117.8 E1.53602
G1 X134.229 Y118.503 E1.55988
G1 X134.1 Y118.801 E1.57014
G1 X133.916 Y119.203 E1.58411
G1 X133.708 Y119.635 E1.59926
G1 X133.413 Y120.205 E1.61954
G1 X133.308 Y120.394 E1.62637
G1 X133.054 Y120.828 E1.64226
G1 X132.785 Y121.264 E1.65845
G1 X132.3 Y121.985 E1.68591
G1 X132.098 Y122.261 E1.69671
G1 X131.901 Y122.521 E1.70702
G1 X131.641 Y122.855 E1.7204
G1 X131.034 Y123.57 E1.75003
G1 X130.368 Y124.23 E1.77966
G1 X129.648 Y124.832 E1.80931
G1 X128.88 Y125.37 E1.83894
G1 X128.163 Y125.786 E1.86513
G1 X128.055 Y125.847 E1.86905
G1 X126.611 Y126.626 E1.92089
G1 X125.552 Y127.191 E1.95882
G1 X124.724 Y127.589 E1.98785
G1 X124.183 Y127.819 E2.00642
G1 X123.776 Y127.982 E2.02027
G1 X122.864 Y128.301 E2.0508
G1 X122.526 Y128.403 E2.06196
G1 X122.197 Y128.497 E2.07277
G1 X121.798 Y128.604 E2.08582
G1 X120.943 Y128.797 E2.11352
G1 X120.612 Y128.858 E2.12415
G1 X120.274 Y128.915 E2.13498
G1 X119.88 Y128.975 E2.14758
G1 X119.008 Y129.072 E2.1753
G1 X118.686 Y129.095 E2.1855
G1 X118.369 Y129.113 E2.19553
G1 X117.031 Y129.169 E2.23785
G1 X115.865 Y129.201 E2.2747
G1 X115.619 Y129.212 E2.28248
G1 X114.681 Y129.212 E2.31212
G1 X113.746 Y129.133 E2.34177
G1 X112.822 Y128.975 E2.37139
G1 X111.914 Y128.738 E2.40104
G1 X111.255 Y128.513 E2.42304
G1 X110.683 Y128.297 E2.44236
G1 X110.27 Y128.131 E2.45643
G1 X110.164 Y128.086 E2.46006
G1 X109.403 Y127.728 E2.48664
G1 X109.127 Y127.585 E2.49646
G1 X108.895 Y127.461 E2.50477
G1 X108.516 Y127.253 E2.51843
G1 X107.858 Y126.862 E2.54262
G1 X107.617 Y126.707 E2.55167
G1 X107.259 Y126.467 E2.56529
G1 X106.869 Y126.194 E2.58033
G1 X106.358 Y125.814 E2.60045
G1 X106.051 Y125.567 E2.6129
G1 X105.892 Y125.435 E2.61943
G1 X105.663 Y125.239 E2.62896
G1 X105.32 Y124.938 E2.64338
G1 X104.797 Y124.448 E2.66602
G1 X104.628 Y124.279 E2.67357
G1 X104.308 Y123.946 E2.68816
G1 X103.966 Y123.574 E2.70413
G1 X103.625 Y123.185 E2.72048
G1 X103.333 Y122.824 E2.73515
G1 X103.182 Y122.63 E2.74292
G1 X103 Y122.39 E2.75243
G1 X102.725 Y122.016 E2.7671
G1 X102.434 Y121.602 E2.78309
G1 X102.39 Y121.536 E2.7856
G1 X102.161 Y121.176 E2.79908
G1 X102.019 Y120.944 E2.80767
G1 X101.883 Y120.716 E2.81606
G1 X101.682 Y120.369 E2.82873
G1 X101.401 Y119.853 E2.8473
G1 X101.3 Y119.655 E2.85432
G1 X101.066 Y119.166 E2.87145
G1 X100.826 Y118.632 E2.88995
G1 X100.388 Y117.492 E2.92854
G1 X100.314 Y117.262 E2.93617
G1 X100.065 Y116.358 E2.9658
G1 X99.894 Y115.436 E2.99543
G1 X99.802 Y114.502 E3.02508
G1 X99.79 Y113.571 E3.0545
G1 X99.831 Y112.192 E3.09809
G1 X99.843 Y111.905 E3.10717
G1 X99.851 Y111.531 E3.11899
G1 X99.859 Y111.288 E3.12667
G1 X99.886 Y110.655 E3.14669
G1 X99.905 Y110.33 E3.15698
G1 X99.932 Y109.957 E3.16879
G1 X100.033 Y109.067 E3.19709
G1 X100.088 Y108.712 E3.20845
G1 X100.143 Y108.389 E3.2188
G1 X100.215 Y108.001 E3.23127
G1 X100.414 Y107.128 E3.25956
G1 X100.497 Y106.822 E3.26958
G1 X100.592 Y106.491 E3.28046
G1 X100.715 Y106.088 E3.29377
G1 X101.016 Y105.23 E3.3225
G1 X101.149 Y104.896 E3.33386
G1 X101.289 Y104.56 E3.34536
G1 X101.459 Y104.171 E3.35878
G1 X101.838 Y103.39 E3.38621
G1 X102.235 Y102.648 E3.4128
G1 X102.601 Y101.974 E3.43703
G1 X103.202 Y100.854 E3.47719
G1 X103.681 Y100.047 E3.50684
G1 X104.226 Y99.284 E3.53647
G1 X104.835 Y98.57 E3.56612
G0 F6000 X105.162 Y98.806
G1 F1200 X105.696 Y98.276 E3.5899
G1 X105.776 Y98.202 E3.59334
G1 X106.238 Y97.798 E3.61273
G1 X106.447 Y97.626 E3.62128
G1 X107.074 Y97.148 E3.6462
G1 X107.325 Y96.971 E3.6559
G1 X107.625 Y96.768 E3.66735
G1 X108.002 Y96.521 E3.68159
G1 X108.759 Y96.068 E3.70946
G1 X109.139 Y95.862 E3.72312
G1 X109.368 Y95.742 E3.73129
G1 X109.687 Y95.579 E3.74261
G1 X110.359 Y95.265 E3.76604
G1 X110.601 Y95.162 E3.77435
G1 X110.947 Y95.022 E3.78615
G1 X111.415 Y94.842 E3.80199
G1 X112.058 Y94.618 E3.82351
G1 X112.282 Y94.548 E3.83092
G1 X112.731 Y94.418 E3.84569
G1 X113.256 Y94.279 E3.86285
G1 X114.098 Y94.092 E3.8901
G1 X114.494 Y94.021 E3.90282
G1 X114.862 Y93.962 E3.91459
G1 X115.225 Y93.91 E3.92618
G1 X115.764 Y93.847 E3.94333
G1 X115.972 Y93.828 E3.94993
G1 X116.503 Y93.793 E3.96674
G1 X117.066 Y93.77 E3.98454
G1 X117.627 Y93.762 E4.00227
G1 X118.004 Y93.77 E4.01419
G1 X118.255 Y93.78 E4.02212
G1 X118.573 Y93.798 E4.03219
G1 X118.873 Y93.819 E4.04169
G1 X119.157 Y93.843 E4.0507
G1 X119.425 Y93.869 E4.0592
G1 X120.292 Y93.989 E4.08686
G1 X120.634 Y94.051 E4.09784
G1 X121.532 Y94.254 E4.12693
G1 X122.409 Y94.535 E4.15603
G1 X123.339 Y94.929 E4.18794
G1 X124.255 Y95.424 E4.22084
G1 X125.054 Y95.909 E4.25038
G1 X125.558 Y96.224 E4.26916
G1 X126.532 Y96.815 E4.30515
G1 X127.063 Y97.159 E4.32514
G1 X127.375 Y97.375 E4.33713
G1 X127.609 Y97.542 E4.34622
G1 X127.909 Y97.762 E4.35797
G1 X128.556 Y98.276 E4.38408
G1 X128.8 Y98.486 E4.39425
G1 X129.066 Y98.723 E4.40551
G1 X129.382 Y99.014 E4.41908
G1 X130.001 Y99.634 E4.44677
G1 X130.243 Y99.897 E4.45806
G1 X130.447 Y100.125 E4.46773
G1 X130.671 Y100.383 E4.47852
G1 X130.946 Y100.712 E4.49207
G1 X131.287 Y101.155 E4.50974
G1 X131.464 Y101.398 E4.51923
G1 X131.623 Y101.623 E4.52794
G1 X131.856 Y101.961 E4.54091
G1 X132.184 Y102.466 E4.55994
G1 X132.636 Y103.209 E4.58742
G1 X133.283 Y104.255 E4.62628
G1 X133.492 Y104.587 E4.63868
G1 X133.948 Y105.387 E4.66777
G1 X134.333 Y106.223 E4.69685
G1 X134.644 Y107.089 E4.72593
G1 X134.898 Y108.072 E4.75801
G1 X134.923 Y108.192 E4.76188
G1 X135.048 Y108.918 E4.78516
G1 X135.099 Y109.291 E4.79705
G1 X135.157 Y109.809 E4.81352
G1 X135.183 Y110.108 E4.82301
G1 X135.222 Y110.851 E4.84651
G1 X135.232 Y111.456 E4.86563
G1 X135.232 Y111.766 E4.87543
G1 X135.229 Y112.001 E4.88285
G1 X135.197 Y112.697 E4.90487
G1 X135.176 Y112.964 E4.91333
G1 X135.131 Y113.417 E4.92772
G1 X135.065 Y113.958 E4.94494
G1 X134.979 Y114.532 E4.96328
G1 X134.917 Y114.863 E4.97392
G1 X134.873 Y115.079 E4.98088
G1 X134.799 Y115.412 E4.99166
G1 X134.695 Y115.85 E5.00588
G1 X134.551 Y116.392 E5.0236
G1 X134.431 Y116.783 E5.03653
G1 X134.279 Y117.24 E5.05175
G1 X134.128 Y117.667 E5.06606
G1 X133.862 Y118.344 E5.08904
G1 X133.733 Y118.642 E5.0993
G1 X133.556 Y119.029 E5.11275
G1 X133.348 Y119.461 E5.1279
G1 X133.063 Y120.011 E5.14747
G1 X132.958 Y120.2 E5.1543
G1 X132.713 Y120.618 E5.16961
G1 X132.444 Y121.054 E5.1858
G1 X131.977 Y121.748 E5.21223
G1 X131.775 Y122.024 E5.22303
G1 X131.585 Y122.275 E5.23298
G1 X131.325 Y122.609 E5.24636
G1 X130.729 Y123.31 E5.27543
G1 X130.074 Y123.957 E5.30452
G1 X129.365 Y124.545 E5.33362
G1 X128.608 Y125.069 E5.36271
G1 X127.972 Y125.432 E5.38585
G1 X126.468 Y126.249 E5.43993
G1 X125.364 Y126.838 E5.47947
G1 X124.566 Y127.222 E5.50745
G1 X124.285 Y127.343 E5.51712
G1 X124.034 Y127.447 E5.5257
G1 X123.627 Y127.61 E5.53956
G1 X122.748 Y127.918 E5.56899
G1 X122.41 Y128.02 E5.58014
G1 X122.094 Y128.11 E5.59052
G1 X121.695 Y128.217 E5.60358
G1 X120.87 Y128.403 E5.6303
G1 X120.539 Y128.464 E5.64093
G1 X120.214 Y128.519 E5.65135
G1 X119.82 Y128.579 E5.66394
G1 X118.979 Y128.673 E5.69068
G1 X118.657 Y128.696 E5.70088
G1 X118.352 Y128.713 E5.71053
G1 X117.02 Y128.769 E5.75266
G1 X115.834 Y128.802 E5.79015
G1 X115.601 Y128.812 E5.79751
G1 X114.681 Y128.812 E5.82658
G1 X113.764 Y128.732 E5.85567
G1 X112.857 Y128.573 E5.88476
G1 X111.967 Y128.336 E5.91387
G1 X111.396 Y128.139 E5.93295
G1 X110.824 Y127.923 E5.95227
G1 X110.427 Y127.763 E5.96579
G1 X110.321 Y127.718 E5.96943
G1 X109.587 Y127.373 E5.99506
G1 X109.311 Y127.23 E6.00488
G1 X109.087 Y127.111 E6.0129
G1 X108.708 Y126.903 E6.02656
G1 X108.074 Y126.525 E6.04988
G1 X107.833 Y126.37 E6.05893
G1 X107.488 Y126.139 E6.07205
G1 X107.098 Y125.866 E6.08709
G1 X106.606 Y125.5 E6.10647
G1 X106.306 Y125.259 E6.11863
G1 X106.147 Y125.127 E6.12516
G1 X105.926 Y124.938 E6.13435
G1 X105.583 Y124.637 E6.14877
G1 X105.08 Y124.165 E6.17056
G1 X104.911 Y123.996 E6.17811
G1 X104.603 Y123.675 E6.19217
G1 X104.261 Y123.303 E6.20814
G1 X103.932 Y122.928 E6.2239
G1 X103.648 Y122.579 E6.23812
G1 X103.497 Y122.385 E6.24588
G1 X103.322 Y122.153 E6.25507
G1 X103.047 Y121.779 E6.26973
G1 X102.767 Y121.38 E6.28514
G1 X102.502 Y120.968 E6.30061
G1 X102.36 Y120.736 E6.30921
G1 X102.229 Y120.515 E6.31733
G1 X102.028 Y120.168 E6.33
G1 X101.758 Y119.672 E6.34784
G1 X101.657 Y119.474 E6.35486
G1 X101.431 Y119.002 E6.3714
G1 X101.191 Y118.468 E6.3899
G1 X100.768 Y117.37 E6.42708
G1 X100.694 Y117.14 E6.43471
G1 X100.451 Y116.252 E6.4638
G1 X100.285 Y115.346 E6.4929
G1 X100.199 Y114.43 E6.52197
G1 X100.19 Y113.583 E6.54874
G1 X100.231 Y112.209 E6.59217
G1 X100.243 Y111.93 E6.601
G1 X100.251 Y111.539 E6.61335
G1 X100.259 Y111.305 E6.62075
G1 X100.286 Y110.672 E6.64077
G1 X100.304 Y110.359 E6.65068
G1 X100.331 Y109.986 E6.66249
G1 X100.428 Y109.128 E6.68978
G1 X100.483 Y108.773 E6.70113
G1 X100.536 Y108.462 E6.7111
G1 X100.608 Y108.074 E6.72356
G1 X100.8 Y107.233 E6.75082
G1 X100.883 Y106.927 E6.76084
G1 X100.975 Y106.608 E6.77133
G1 X101.098 Y106.205 E6.78464
G1 X101.388 Y105.378 E6.81233
G1 X101.521 Y105.044 E6.82369
G1 X101.656 Y104.72 E6.83478
G1 X101.826 Y104.331 E6.8482
G1 X102.191 Y103.578 E6.87464
G1 X102.587 Y102.839 E6.90113
G1 X102.953 Y102.165 E6.92536
G1 X103.555 Y101.043 E6.9656
G1 X104.025 Y100.252 E6.99467
G1 X104.562 Y99.504 E7.02376
G1 X105.162 Y98.806 E7.05285
G0 F6000 X105.49 Y99.042
G1 F1200 X105.968 Y98.569 E7.07409
G1 X106.048 Y98.495 E7.07754
G1 X106.492 Y98.107 E7.09617
G1 X106.701 Y97.935 E7.10472
G1 X107.305 Y97.475 E7.12871
G1 X107.556 Y97.298 E7.13842
G1 X107.844 Y97.102 E7.14942
G1 X108.221 Y96.855 E7.16366
G1 X108.95 Y96.42 E7.19049
G1 X109.33 Y96.214 E7.20414
G1 X109.55 Y96.098 E7.212
G1 X109.869 Y95.935 E7.22332
G1 X110.515 Y95.633 E7.24585
G1 X110.757 Y95.53 E7.25416
G1 X111.09 Y95.395 E7.26552
G1 X111.558 Y95.215 E7.28136
G1 X112.178 Y94.999 E7.30211
G1 X112.402 Y94.929 E7.30952
G1 X112.833 Y94.805 E7.32369
G1 X113.358 Y94.666 E7.34085
G1 X114.169 Y94.486 E7.3671
G1 X114.565 Y94.415 E7.37981
G1 X114.919 Y94.358 E7.39114
G1 X115.282 Y94.306 E7.40273
G1 X115.8 Y94.245 E7.41921
G1 X116.008 Y94.226 E7.42581
G1 X116.52 Y94.193 E7.44202
G1 X117.083 Y94.17 E7.45983
G1 X117.622 Y94.162 E7.47686
G1 X117.988 Y94.17 E7.48843
G1 X118.239 Y94.18 E7.49636
G1 X118.545 Y94.197 E7.50605
G1 X118.845 Y94.218 E7.51555
G1 X119.118 Y94.241 E7.52421
G1 X119.386 Y94.267 E7.53271
G1 X120.22 Y94.383 E7.55932
G1 X120.562 Y94.445 E7.5703
G1 X121.443 Y94.645 E7.59885
G1 X122.303 Y94.922 E7.62739
G1 X123.167 Y95.29 E7.65707
G1 X124.048 Y95.766 E7.68871
G1 X124.842 Y96.248 E7.71806
G1 X125.283 Y96.523 E7.73448
G1 X126.325 Y97.156 E7.773
G1 X126.835 Y97.488 E7.79223
G1 X127.147 Y97.704 E7.80422
G1 X127.373 Y97.865 E7.81299
G1 X127.673 Y98.085 E7.82474
G1 X128.295 Y98.579 E7.84984
G1 X128.539 Y98.789 E7.86001
G1 X128.795 Y99.017 E7.87084
G1 X129.111 Y99.308 E7.88442
G1 X129.707 Y99.904 E7.91105
G1 X129.949 Y100.167 E7.92234
G1 X130.145 Y100.387 E7.93165
G1 X130.369 Y100.645 E7.94245
G1 X130.635 Y100.964 E7.95557
G1 X130.964 Y101.391 E7.9726
G1 X131.141 Y101.634 E7.9821
G1 X131.294 Y101.85 E7.99047
G1 X131.527 Y102.188 E8.00344
G1 X131.842 Y102.674 E8.02174
G1 X132.296 Y103.42 E8.04933
G1 X132.976 Y104.518 E8.09014
G1 X133.153 Y104.8 E8.10066
G1 X133.6 Y105.585 E8.1292
G1 X133.975 Y106.406 E8.15772
G1 X134.277 Y107.257 E8.18625
G1 X134.507 Y108.154 E8.21551
G1 X134.532 Y108.274 E8.21939
G1 X134.652 Y108.972 E8.24177
G1 X134.703 Y109.345 E8.25366
G1 X134.759 Y109.843 E8.2695
G1 X134.785 Y110.142 E8.27898
G1 X134.822 Y110.857 E8.3016
G1 X134.832 Y111.462 E8.32072
G1 X134.832 Y111.761 E8.33017
G1 X134.829 Y111.996 E8.33759
G1 X134.799 Y112.666 E8.35878
G1 X134.778 Y112.933 E8.36725
G1 X134.734 Y113.368 E8.38106
G1 X134.668 Y113.909 E8.39828
G1 X134.585 Y114.462 E8.41595
G1 X134.525 Y114.783 E8.42627
G1 X134.481 Y114.999 E8.43324
G1 X134.41 Y115.319 E8.44359
G1 X134.306 Y115.757 E8.45782
G1 X134.168 Y116.279 E8.47488
G1 X134.051 Y116.659 E8.48744
G1 X133.901 Y117.107 E8.50237
G1 X133.75 Y117.534 E8.51668
G1 X133.495 Y118.185 E8.53877
G1 X133.366 Y118.483 E8.54903
G1 X133.195 Y118.856 E8.562
G1 X132.987 Y119.288 E8.57715
G1 X132.713 Y119.817 E8.59597
G1 X132.608 Y120.006 E8.6028
G1 X132.373 Y120.408 E8.61751
G1 X132.104 Y120.844 E8.6337
G1 X131.654 Y121.512 E8.65915
G1 X131.452 Y121.788 E8.66996
G1 X131.27 Y122.03 E8.67953
G1 X131.01 Y122.364 E8.6929
G1 X130.424 Y123.051 E8.72143
G1 X129.78 Y123.684 E8.74996
G1 X129.082 Y124.257 E8.7785
G1 X128.336 Y124.767 E8.80705
G1 X127.775 Y125.067 E8.82715
G1 X127.784 Y125.084 E8.82776
G1 X126.234 Y125.92 E8.88341
G1 X125.175 Y126.485 E8.92133
G1 X124.408 Y126.854 E8.94822
G1 X124.127 Y126.975 E8.95789
